packages/kaspersky-hexa-ui-icons/src/iconsSVGs/16/YARAScan.svg

<svg width="16" height="16" viewBox="0 0 16 16" fill="none" xmlns="http://www.w3.org/2000/svg">
<path d="M2.66641 10.3506C3.02529 10.3506 3.31663 10.6412 3.3168 11V12C3.31698 12.377 3.62243 12.6833 3.99942 12.6836H4.99942C5.3584 12.6836 5.64981 12.975 5.64981 13.334C5.64945 13.6927 5.35818 13.9834 4.99942 13.9834H3.99942C2.90446 13.9831 2.0162 13.095 2.01602 12V11C2.0162 10.6413 2.30768 10.3508 2.66641 10.3506Z" fill="black"/>
<path d="M13.3334 10.3506C13.6921 10.3508 13.9826 10.6413 13.9828 11V12C13.9826 13.0952 13.0947 13.9834 11.9994 13.9834H10.9994C10.6409 13.9831 10.3504 13.6925 10.35 13.334C10.35 12.9752 10.6407 12.6839 10.9994 12.6836H11.9994C12.3767 12.6836 12.6828 12.3772 12.683 12V11C12.6832 10.6413 12.9747 10.3508 13.3334 10.3506Z" fill="black"/>
<path d="M2.97207 6.47168C3.0083 6.48258 3.03892 6.50939 3.05508 6.54492L3.42715 7.37305L3.42911 7.37598C3.43745 7.39578 3.44609 7.42324 3.45743 7.45312C3.46884 7.42304 3.47834 7.39589 3.48672 7.37598L3.4877 7.37402L3.85196 6.5459L3.87247 6.5127C3.89731 6.48371 3.93462 6.46594 3.97403 6.46582H4.7543C4.80052 6.46584 4.84332 6.49096 4.86758 6.53027C4.89178 6.56984 4.89354 6.61885 4.87247 6.66016L3.94278 8.47559V9.40039C3.94278 9.47401 3.88357 9.53414 3.80997 9.53418H3.08926C3.01599 9.53376 2.95645 9.47377 2.95645 9.40039V8.48535L2.01114 6.66113C1.98998 6.61993 1.99101 6.56988 2.01504 6.53027C2.03917 6.49067 2.08294 6.46596 2.1293 6.46582H2.93399L2.97207 6.47168Z" fill="black"/>
<path fill-rule="evenodd" clip-rule="evenodd" d="M9.51407 6.46582C9.84127 6.46586 10.1252 6.567 10.3275 6.75879C10.5305 6.95131 10.64 7.2247 10.64 7.54395C10.64 7.97617 10.4111 8.30166 10.0395 8.45801L10.6322 9.3252C10.6601 9.3659 10.6629 9.41923 10.64 9.46289C10.617 9.50635 10.572 9.53397 10.5229 9.53418H9.6625C9.61715 9.53418 9.57473 9.51079 9.5502 9.47266L9.05118 8.69238V9.40039C9.05118 9.47382 8.99171 9.53384 8.91836 9.53418H8.19766C8.12402 9.53418 8.06387 9.47403 8.06387 9.40039V6.59961C8.06409 6.52615 8.12416 6.46582 8.19766 6.46582H9.51407ZM9.05118 7.75098H9.44571C9.55779 7.75088 9.64493 7.66858 9.64493 7.54395C9.64484 7.4779 9.622 7.43181 9.59122 7.40234C9.55939 7.37211 9.50956 7.35063 9.44571 7.35059H9.05118V7.75098Z" fill="black"/>
<path fill-rule="evenodd" clip-rule="evenodd" d="M6.75918 6.47266C6.79794 6.48494 6.82974 6.5151 6.84415 6.55469L7.85196 9.35449C7.86665 9.39529 7.86122 9.44106 7.83633 9.47656C7.81136 9.51205 7.77035 9.5332 7.72696 9.5332H6.9711C6.91333 9.53309 6.86187 9.49543 6.84415 9.44043L6.71817 9.04883H5.84317L5.71329 9.44141C5.69526 9.49589 5.64467 9.53306 5.58731 9.5332H4.85098C4.80768 9.53312 4.76652 9.51198 4.74161 9.47656C4.71689 9.44107 4.71129 9.39519 4.72598 9.35449L5.7377 6.55469L5.75723 6.51855C5.78191 6.48644 5.82074 6.46599 5.8627 6.46582H6.71915L6.75918 6.47266ZM6.06485 8.12988H6.50918L6.32168 7.52051H6.25235L6.06485 8.12988Z" fill="black"/>
<path fill-rule="evenodd" clip-rule="evenodd" d="M12.8969 6.47266C12.9356 6.48499 12.9675 6.51506 12.9818 6.55469L13.9897 9.35449C14.0043 9.39518 13.9987 9.4411 13.974 9.47656C13.9491 9.51196 13.9079 9.5331 13.8647 9.5332H13.1088C13.0509 9.5332 12.9996 9.49552 12.9818 9.44043L12.8559 9.04883H11.9809L11.851 9.44141C11.833 9.49578 11.7822 9.53292 11.725 9.5332H10.9887C10.9453 9.5332 10.9043 9.51205 10.8793 9.47656C10.8544 9.44103 10.8489 9.3953 10.8637 9.35449L11.8754 6.55469L11.8949 6.51855C11.9197 6.48654 11.9585 6.46591 12.0004 6.46582H12.8568L12.8969 6.47266ZM12.2025 8.12988H12.6469L12.4594 7.52051H12.39L12.2025 8.12988Z" fill="black"/>
<path d="M5.13028 2.03027C5.42669 2.09072 5.64981 2.35273 5.64981 2.66699C5.64965 2.98111 5.42658 3.24329 5.13028 3.30371L4.99942 3.31738H3.99942C3.62243 3.31773 3.31698 3.62297 3.3168 4V5C3.31662 5.35883 3.02528 5.65039 2.66641 5.65039C2.30768 5.65022 2.0162 5.35873 2.01602 5V4C2.01619 2.905 2.90445 2.01694 3.99942 2.0166H4.99942L5.13028 2.03027Z" fill="black"/>
<path d="M11.9994 2.0166C13.0947 2.0166 13.9826 2.90479 13.9828 4V5C13.9826 5.35872 13.6921 5.65021 13.3334 5.65039C12.9747 5.65022 12.6832 5.35873 12.683 5V4C12.6828 3.62276 12.3767 3.31738 11.9994 3.31738H10.9994C10.6408 3.31704 10.3502 3.02561 10.35 2.66699C10.35 2.30822 10.6407 2.01695 10.9994 2.0166H11.9994Z" fill="black"/>
</svg>

<svg xmlns="http://www.w3.org/2000/svg" width="16" height="16" fill="none" viewBox="0 0 16 16"><path fill="#000" d="M2.666 10.351a.65.65 0 0 1 .651.649v1c0 .377.306.683.683.684h1a.65.65 0 0 1 .65.65.65.65 0 0 1-.65.649H4c-1.096 0-1.984-.888-1.984-1.983v-1c0-.359.292-.649.65-.649m10.667 0a.65.65 0 0 1 .649.649v1c0 1.095-.888 1.983-1.983 1.983h-1a.65.65 0 0 1-.649-.649.65.65 0 0 1 .649-.65h1a.684.684 0 0 0 .684-.684v-1c0-.359.292-.649.65-.649M2.972 6.472a.135.135 0 0 1 .083.073l.372.828.002.003c.008.02.017.047.028.077.011-.03.021-.057.029-.077l.001-.002.364-.828.021-.033a.135.135 0 0 1 .102-.047h.78c.046 0 .089.025.113.065a.133.133 0 0 1 .005.13l-.93 1.815v.925a.133.133 0 0 1-.133.134h-.721a.134.134 0 0 1-.133-.134v-.915l-.944-1.825a.135.135 0 0 1 .004-.131.135.135 0 0 1 .114-.064h.805z"/><path fill="#000" fill-rule="evenodd" d="M9.514 6.466c.327 0 .611.101.814.293.203.193.313.466.313.785 0 .432-.229.758-.6.914l.593.867a.134.134 0 0 1-.109.209h-.86a.134.134 0 0 1-.112-.061l-.499-.78v.708a.134.134 0 0 1-.133.134H8.2a.134.134 0 0 1-.134-.134V6.6a.135.135 0 0 1 .134-.134zm-.463 1.285h.395c.112 0 .199-.082.199-.207 0-.066-.023-.112-.054-.142-.032-.03-.082-.052-.145-.052h-.394zM6.759 6.473a.134.134 0 0 1 .085.082l1.008 2.8a.134.134 0 0 1-.016.122.134.134 0 0 1-.109.057h-.756a.134.134 0 0 1-.127-.093l-.126-.392h-.875l-.13.393a.133.133 0 0 1-.126.092h-.736a.134.134 0 0 1-.109-.057.135.135 0 0 1-.016-.122l1.012-2.8.02-.036a.135.135 0 0 1 .106-.053h.856zM6.065 8.13h.444l-.187-.609h-.069zm6.832-1.657a.134.134 0 0 1 .085.082l1.008 2.8a.135.135 0 0 1-.016.122.135.135 0 0 1-.109.057h-.756a.134.134 0 0 1-.127-.093l-.126-.392h-.875l-.13.393a.134.134 0 0 1-.126.092h-.736a.134.134 0 0 1-.109-.057.134.134 0 0 1-.016-.122l1.012-2.8.02-.036a.135.135 0 0 1 .106-.053h.856zm-.694 1.657h.444l-.187-.609h-.07z" clip-rule="evenodd"/><path fill="#000" d="M5.13 2.03a.65.65 0 0 1 .52.637.651.651 0 0 1-.519.637L5 3.318H4A.683.683 0 0 0 3.317 4v1a.651.651 0 0 1-.65.65.651.651 0 0 1-.651-.65V4c0-1.095.889-1.983 1.983-1.983h1zm6.869-.013c1.095 0 1.983.888 1.983 1.983v1c0 .359-.291.65-.649.65a.651.651 0 0 1-.65-.65V4a.683.683 0 0 0-.684-.683h-1a.65.65 0 0 1 0-1.301z"/></svg>
